icons/evolvere-blue-folders-flat-vivid-dark-fallback/apps/64/yakuake.svg

<svg xmlns="http://www.w3.org/2000/svg" viewBox="0 0 64 64"><g color="#000"><path d="m0 4v30 28l2 2h30 30l2-2v-28-30h-32-32" fill="#597faf"/><path d="m0 4v8h64v-8h-32z" fill="#2d7edf"/><path d="m6 12v41h3.25 45.5 3.25v-41h-2v39h-3-42-3v-39z" fill="#d7e9f2"/><path d="m58 12v41h-52l1 1 1 1 1 1 1 1 1 1 1 1h52v-47h-1-4-1" fill="#001f48" fill-opacity=".107"/><path d="m2 0l-2 1v3h32 32v-3l-2-1h-30-30" fill="#62b6ff"/></g><path d="m0 3v3l2-2z" fill="#85c6ff"/><path d="m64 6l-2-2 2-1z" fill="#4698ee"/><g color="#000"><path d="m8 12h48v39h-3-42-3z" fill="#295766"/><path d="m13 33v1.662l6.74 3.065-6.74 3.065v1.662l8.864-4.044v-1.366zm9 11v2h6.955v-1.773z" fill="#d7e9f2"/><path fill="#001f48" fill-opacity=".107" d="m0 12h64v2h-64z"/></g></svg>

<?xml version="1.0" encoding="UTF-8" standalone="no"?>
<!-- Created with Inkscape (http://www.inkscape.org/) -->

<svg
   xmlns:dc="http://purl.org/dc/elements/1.1/"
   xmlns:cc="http://creativecommons.org/ns#"
   xmlns:rdf="http://www.w3.org/1999/02/22-rdf-syntax-ns#"
   xmlns:svg="http://www.w3.org/2000/svg"
   xmlns="http://www.w3.org/2000/svg"
   xmlns:xlink="http://www.w3.org/1999/xlink"
   xmlns:sodipodi="http://sodipodi.sourceforge.net/DTD/sodipodi-0.dtd"
   xmlns:inkscape="http://www.inkscape.org/namespaces/inkscape"
   width="64"
   height="64"
   id="svg13094"
   version="1.1"
   inkscape:version="0.48.4 r9939"
   sodipodi:docname="yakuake.svg">
  <sodipodi:namedview
     id="base"
     pagecolor="#ffffff"
     bordercolor="#666666"
     borderopacity="1.0"
     inkscape:pageopacity="0"
     inkscape:pageshadow="2"
     inkscape:zoom="11.313709"
     inkscape:cx="32.33884"
     inkscape:cy="29.655019"
     inkscape:document-units="px"
     inkscape:current-layer="svg13094"
     showgrid="true"
     inkscape:snap-bbox="true"
     inkscape:bbox-paths="true"
     inkscape:bbox-nodes="true"
     inkscape:snap-bbox-edge-midpoints="true"
     inkscape:snap-bbox-midpoints="true"
     inkscape:object-paths="true"
     inkscape:snap-intersection-paths="true"
     inkscape:object-nodes="true"
     inkscape:snap-smooth-nodes="true"
     inkscape:snap-midpoints="true"
     inkscape:snap-object-midpoints="true"
     inkscape:snap-center="true"
     showguides="true"
     inkscape:guide-bbox="true"
     inkscape:window-width="1920"
     inkscape:window-height="1025"
     inkscape:window-x="-2"
     inkscape:window-y="32"
     inkscape:window-maximized="1"
     inkscape:snap-global="true"
     fit-margin-top="0"
     fit-margin-left="0"
     fit-margin-right="0"
     fit-margin-bottom="0"
     showborder="true"
     inkscape:showpageshadow="false"
     inkscape:snap-page="true">
    <inkscape:grid
       type="xygrid"
       id="grid3075"
       empspacing="5"
       visible="true"
       enabled="true"
       snapvisiblegridlinesonly="true"
       originx="1.6362304e-08px"
       originy="18px" />
  </sodipodi:namedview>
  <defs
     id="defs13096">
    <linearGradient
       inkscape:collect="always"
       id="linearGradient3837">
      <stop
         style="stop-color:#b8c1cc;stop-opacity:0.19611308"
         offset="0"
         id="stop3839" />
      <stop
         style="stop-color:#b8c1cc;stop-opacity:0;"
         offset="1"
         id="stop3841" />
    </linearGradient>
    <radialGradient
       inkscape:collect="always"
       xlink:href="#linearGradient3837"
       id="radialGradient3843"
       cx="32"
       cy="2.5998335"
       fx="32"
       fy="2.5998335"
       r="32"
       gradientTransform="matrix(0,1.2382845,-1.734375,0,36.509086,-25.250208)"
       gradientUnits="userSpaceOnUse" />
  </defs>
  <metadata
     id="metadata13099">
    <rdf:RDF>
      <cc:Work
         rdf:about="">
        <dc:format>image/svg+xml</dc:format>
        <dc:type
           rdf:resource="http://purl.org/dc/dcmitype/StillImage" />
        <dc:title />
      </cc:Work>
    </rdf:RDF>
  </metadata>
  <path
     id="path3802"
     d="m 0,4 0,30 0,28 2,2 30,0 30,0 2,-2 L 64,34 64,4 32,4 0,4 z"
     style="color:#000000;fill:#597faf;fill-opacity:1;fill-rule:nonzero;stroke:none;stroke-width:1;marker:none;visibility:visible;display:inline;overflow:visible;enable-background:accumulate"
     inkscape:connector-curvature="0" />
  <path
     style="color:#000000;fill:#2d7edf;fill-opacity:1;fill-rule:nonzero;stroke:none;stroke-width:2.28571415000000000;marker:none;visibility:visible;display:inline;overflow:visible;enable-background:accumulate"
     d="M 0,4 1.6362304e-8,12 64,12 64,4 32,4 z"
     id="path6498"
     inkscape:connector-curvature="0"
     sodipodi:nodetypes="cccccc" />
  <path
     inkscape:connector-curvature="0"
     style="color:#000000;fill:#d7e9f2;fill-opacity:1;fill-rule:nonzero;stroke:none;stroke-width:2.28571415000000000;marker:none;visibility:visible;display:inline;overflow:visible;enable-background:accumulate"
     d="m 6,12 0,41 3.25,0 45.5,0 3.25,0 0,-41 -2,0 0,39 -3,0 -42,0 -3,0 0,-39 z"
     id="path3814"
     sodipodi:nodetypes="ccccccccccccc" />
  <path
     style="color:#000000;fill:#001f48;fill-opacity:0.10743061;fill-rule:nonzero;stroke:none;stroke-width:2.28571415000000000;marker:none;visibility:visible;display:inline;overflow:visible;enable-background:accumulate"
     d="M 58 12 L 58 53 L 6 53 L 7 54 L 8 55 L 9 56 L 10 57 L 11 58 L 12 59 L 64 59 L 64 12 L 63 12 L 59 12 L 58 12 z "
     id="path3823" />
  <path
     style="color:#000000;fill:#62b6ff;fill-opacity:1;fill-rule:nonzero;stroke:none;marker:none;visibility:visible;display:inline;overflow:visible;enable-background:accumulate;stroke-width:2.28571415000000000"
     d="M 2 0 L 0 1 L 0 4 L 32 4 L 64 4 L 64 1 L 62 0 L 32 0 L 2 0 z "
     id="path6502" />
  <path
     style="fill:#85c6ff;fill-opacity:1;fill-rule:nonzero"
     d="M 0,3 0,6 2,4 z"
     id="path4298"
     inkscape:connector-curvature="0"
     sodipodi:nodetypes="cccc" />
  <path
     d="M 64,6 62,4 64,3 z"
     id="path3028"
     style="fill:#4698ee;fill-opacity:1"
     inkscape:connector-curvature="0" />
  <g
     id="g3043"
     inkscape:export-filename="folder.png"
     inkscape:export-xdpi="90"
     inkscape:export-ydpi="90"
     transform="translate(-0.62500009,0.082283)" />
  <g
     id="scalable"
     transform="matrix(1.0385892,0,0,1.0385892,1214.7222,1878.8121)"
     inkscape:label="#g3701"
     style="fill:#ffffff" />
  <path
     sodipodi:nodetypes="ccccccc"
     inkscape:connector-curvature="0"
     id="path3791"
     d="m 8,12 48,0 0,39 -3,0 -42,0 -3,0 z"
     style="color:#000000;fill:#295766;fill-opacity:1;fill-rule:nonzero;stroke:none;stroke-width:2.28571415000000000;marker:none;visibility:visible;display:inline;overflow:visible;enable-background:accumulate" />
  <path
     style="font-size:31.84835242999999849px;font-style:normal;font-variant:normal;font-weight:normal;font-stretch:normal;line-height:125%;letter-spacing:0px;word-spacing:0px;fill:#d7e9f2;fill-opacity:1;stroke:none;font-family:Futura LT;-inkscape-font-specification:Futura LT;color:#000000;fill-rule:nonzero;marker:none;visibility:visible;display:inline;overflow:visible;enable-background:accumulate"
     d="m 13,33 0,1.661932 6.740057,3.065341 L 13,40.792614 l 0,1.661931 8.863636,-4.044034 0,-1.366477 z m 9,11 0,2 6.954545,0 0,-1.772727 z"
     id="path3790"
     inkscape:connector-curvature="0"
     sodipodi:nodetypes="ccccccccccccc" />
  <rect
     y="12"
     x="1.6362305e-08"
     height="2"
     width="64"
     id="rect3796"
     style="color:#000000;fill:#001f48;fill-opacity:0.10743061000000000;fill-rule:nonzero;stroke:none;stroke-width:2.28571415000000000;marker:none;visibility:visible;display:inline;overflow:visible;enable-background:accumulate" />
</svg>
